findly-builder/apps/searchassist/src/assets/icons/content/database-add.svg

<svg width="50" height="50" viewBox="0 0 50 50" fill="none" xmlns="http://www.w3.org/2000/svg">
<path d="M0.78125 14.0625V36.7188C0.78125 41.0312 9.52344 44.5312 20.3125 44.5312C31.1016 44.5312 39.8438 41.0312 39.8438 36.7188V14.0625H0.78125Z" fill="#B893F2"/>
<path d="M6.25 14.0625H0.78125V36.7188C0.78125 38.8203 2.86719 40.7344 6.25 42.1406V14.0625Z" fill="#F1E9FB"/>
<path d="M28.125 14.0625V43.8828C35.0234 42.6719 39.8438 39.9219 39.8438 36.7188V14.0625H28.125Z" fill="#F1E9FB"/>
<path d="M20.3125 5.46875C15.1325 5.46875 10.1646 6.29185 6.50182 7.75698C2.839 9.22211 0.78125 11.2092 0.78125 13.2812C0.78125 15.3533 2.839 17.3404 6.50182 18.8055C10.1646 20.2706 15.1325 21.0938 20.3125 21.0938C25.4925 21.0938 30.4604 20.2706 34.1232 18.8055C37.786 17.3404 39.8438 15.3533 39.8438 13.2812C39.8438 11.2092 37.786 9.22211 34.1232 7.75698C30.4604 6.29185 25.4925 5.46875 20.3125 5.46875Z" fill="#B893F2"/>
<path d="M21.1795 9.375C21.9138 9.375 22.6638 9.42187 23.3904 9.46875H23.4373C23.8685 9.48359 24.231 9.14609 24.2459 8.71484C24.2607 8.28359 23.9232 7.92109 23.492 7.90625C22.7107 7.85156 21.9295 7.82031 21.2029 7.8125C20.7717 7.8125 20.4217 8.1625 20.4217 8.59375C20.4217 9.025 20.7717 9.375 21.2029 9.375H21.1795ZM11.0779 10.3906C11.1404 10.3984 11.2029 10.3984 11.2654 10.3906C13.3967 9.88281 15.5693 9.57422 17.7576 9.46875C18.1888 9.45 18.5232 9.08594 18.5045 8.65469C18.5037 8.63438 18.5021 8.61406 18.4998 8.59375C18.4748 8.16484 18.1084 7.8375 17.6795 7.85938C15.3912 7.97109 13.1185 8.29531 10.8904 8.82813C10.4592 8.87969 10.1513 9.27188 10.2029 9.70312C10.2545 10.1344 10.6467 10.4422 11.0779 10.3906Z" fill="#7027E5"/>
<path d="M20.3125 4.6875C8.92188 4.6875 0 8.46094 0 13.2812V36.7188C0 41.5391 8.92188 45.3125 20.3125 45.3125C31.7031 45.3125 40.625 41.5391 40.625 36.7188V13.2812C40.625 8.46094 31.7031 4.6875 20.3125 4.6875ZM39.0625 21.0938C39.0625 24.4922 31.5312 28.125 20.3125 28.125C9.09375 28.125 1.5625 24.4922 1.5625 21.0938V16.6484C4.60156 19.7734 11.7578 21.875 20.3125 21.875C28.8672 21.875 36.0234 19.75 39.0625 16.6484V21.0938ZM20.3125 6.25C31.5312 6.25 39.0625 9.88281 39.0625 13.2812C39.0625 16.6797 31.5312 20.3125 20.3125 20.3125C9.09375 20.3125 1.5625 16.6797 1.5625 13.2812C1.5625 9.88281 9.09375 6.25 20.3125 6.25ZM20.3125 43.75C9.09375 43.75 1.5625 40.1172 1.5625 36.7188V32.2578C4.07031 34.8359 9.4375 36.7734 16.2969 37.3359H16.3594C16.7906 37.3531 17.1547 37.0172 17.1719 36.5859C17.1891 36.1547 16.8531 35.7906 16.4219 35.7734C7.95312 35.0859 1.5625 32.125 1.5625 28.9062V24.4609C4.60156 27.5859 11.7578 29.6875 20.3125 29.6875C28.8672 29.6875 36.0234 27.5625 39.0625 24.4609V28.9062C39.0625 30.2578 37.8672 31.6562 35.6875 32.8125C35.3078 33.0281 35.175 33.5109 35.3906 33.8906C35.6063 34.2703 36.0891 34.4031 36.4688 34.1875C37.4211 33.6875 38.2945 33.05 39.0625 32.2969V36.7188C39.0625 40.1172 31.5312 43.75 20.3125 43.75Z" fill="#7027E5"/>
<path d="M20.3125 34.375C19.8813 34.375 19.5312 34.725 19.5312 35.1562V36.7188C19.5312 37.15 19.8813 37.5 20.3125 37.5C20.7437 37.5 21.0938 37.15 21.0938 36.7188V35.1562C21.0938 34.725 20.7437 34.375 20.3125 34.375ZM24.2188 34.2187C23.7875 34.2187 23.4375 34.5687 23.4375 35V36.5625C23.4375 36.9937 23.7875 37.3437 24.2188 37.3437C24.65 37.3437 25 36.9937 25 36.5625V35C25 34.5687 24.65 34.2187 24.2188 34.2187ZM28.125 33.6719C27.6938 33.6719 27.3438 34.0219 27.3438 34.4531V36.0156C27.3438 36.4469 27.6938 36.7969 28.125 36.7969C28.5562 36.7969 28.9062 36.4469 28.9062 36.0156V34.4531C28.9062 34.0219 28.5562 33.6719 28.125 33.6719ZM32.0312 32.8125C31.6 32.8125 31.25 33.1625 31.25 33.5938V35.1562C31.25 35.5875 31.6 35.9375 32.0312 35.9375C32.4625 35.9375 32.8125 35.5875 32.8125 35.1562V33.5938C32.8125 33.1625 32.4625 32.8125 32.0312 32.8125Z" fill="#7027E5"/>
<path d="M49.2188 7.03125H42.9688V0.78125H36.7188V7.03125H30.4688V13.2812H36.7188V19.5312H42.9688V13.2812H49.2188V7.03125Z" fill="#FFDA2D"/>
<path d="M42.9688 20.3125H36.7188C36.2875 20.3125 35.9375 19.9625 35.9375 19.5312V14.0625H30.4688C30.0375 14.0625 29.6875 13.7125 29.6875 13.2812V7.03125C29.6875 6.6 30.0375 6.25 30.4688 6.25H35.9375V0.78125C35.9375 0.35 36.2875 0 36.7188 0H42.9688C43.4 0 43.75 0.35 43.75 0.78125V6.25H49.2188C49.65 6.25 50 6.6 50 7.03125V13.2812C50 13.7125 49.65 14.0625 49.2188 14.0625H43.75V19.5312C43.75 19.9625 43.4 20.3125 42.9688 20.3125ZM37.5 18.75H42.1875V13.2812C42.1875 12.85 42.5375 12.5 42.9688 12.5H48.4375V7.8125H42.9688C42.5375 7.8125 42.1875 7.4625 42.1875 7.03125V1.5625H37.5V7.03125C37.5 7.4625 37.15 7.8125 36.7188 7.8125H31.25V12.5H36.7188C37.15 12.5 37.5 12.85 37.5 13.2812V18.75Z" fill="#7027E5"/>
</svg>

<svg width="50" height="50" fill="none" xmlns="http://www.w3.org/2000/svg"><path d="M.781 14.063v22.656c0 4.312 8.742 7.812 19.532 7.812 10.789 0 19.53-3.5 19.53-7.812V14.062H.782Z" fill="#B893F2"/><path d="M6.25 14.063H.781v22.656c0 2.101 2.086 4.015 5.469 5.422V14.063Zm21.875 0v29.82c6.898-1.211 11.719-3.961 11.719-7.164V14.062H28.125Z" fill="#F1E9FB"/><path d="M20.313 5.469c-5.18 0-10.148.823-13.811 2.288-3.663 1.465-5.72 3.452-5.72 5.524s2.057 4.06 5.72 5.524c3.663 1.466 8.63 2.289 13.81 2.289s10.148-.823 13.811-2.289c3.663-1.465 5.72-3.452 5.72-5.524s-2.057-4.059-5.72-5.524c-3.663-1.465-8.63-2.288-13.81-2.288Z" fill="#B893F2"/><path d="M21.18 9.375c.734 0 1.484.047 2.21.094h.047a.782.782 0 0 0 .055-1.563 39.221 39.221 0 0 0-2.29-.093.782.782 0 0 0 0 1.562h-.023Zm-10.102 1.016a.754.754 0 0 0 .187 0 35.35 35.35 0 0 1 6.493-.922.781.781 0 0 0 .742-.875.781.781 0 0 0-.82-.735 36.932 36.932 0 0 0-6.79.97.787.787 0 0 0 .188 1.562Z" fill="#7027E5"/><path d="M20.313 4.688C8.921 4.688 0 8.46 0 13.28v23.44c0 4.82 8.922 8.593 20.313 8.593 11.39 0 20.312-3.773 20.312-8.593V13.28c0-4.82-8.922-8.594-20.313-8.594Zm18.75 16.406c0 3.398-7.532 7.031-18.75 7.031-11.22 0-18.75-3.633-18.75-7.031v-4.446c3.039 3.125 10.195 5.227 18.75 5.227 8.554 0 15.71-2.125 18.75-5.227v4.446ZM20.313 6.25c11.218 0 18.75 3.633 18.75 7.031 0 3.399-7.532 7.031-18.75 7.031-11.22 0-18.75-3.632-18.75-7.03 0-3.4 7.53-7.032 18.75-7.032Zm0 37.5c-11.22 0-18.75-3.633-18.75-7.031v-4.461c2.507 2.578 7.875 4.515 14.734 5.078h.062a.782.782 0 0 0 .063-1.563c-8.469-.687-14.86-3.648-14.86-6.867v-4.445c3.04 3.125 10.196 5.227 18.75 5.227 8.555 0 15.711-2.125 18.75-5.227v4.445c0 1.352-1.195 2.75-3.374 3.907a.79.79 0 0 0 .78 1.374c.953-.5 1.826-1.137 2.594-1.89v4.422c0 3.398-7.53 7.031-18.75 7.031Z" fill="#7027E5"/><path d="M20.313 34.375a.782.782 0 0 0-.782.781v1.563a.782.782 0 0 0 1.563 0v-1.563a.782.782 0 0 0-.782-.781Zm3.906-.156a.782.782 0 0 0-.782.781v1.563a.782.782 0 0 0 1.563 0V35a.782.782 0 0 0-.781-.781Zm3.906-.547a.782.782 0 0 0-.781.781v1.563a.782.782 0 0 0 1.562 0v-1.563a.782.782 0 0 0-.781-.781Zm3.906-.86a.782.782 0 0 0-.781.782v1.562a.782.782 0 0 0 1.563 0v-1.562a.782.782 0 0 0-.782-.782Z" fill="#7027E5"/><path d="M49.219 7.031h-6.25V.781h-6.25v6.25h-6.25v6.25h6.25v6.25h6.25v-6.25h6.25v-6.25Z" fill="#FFDA2D"/><path d="M42.969 20.313h-6.25a.782.782 0 0 1-.782-.782v-5.468H30.47a.782.782 0 0 1-.782-.782v-6.25c0-.431.35-.781.782-.781h5.468V.781c0-.431.35-.781.782-.781h6.25c.431 0 .781.35.781.781V6.25h5.469c.431 0 .781.35.781.781v6.25c0 .431-.35.781-.781.781h-5.47v5.47c0 .43-.35.78-.781.78ZM37.5 18.75h4.688v-5.469c0-.431.35-.781.78-.781h5.47V7.812h-5.47a.782.782 0 0 1-.78-.78v-5.47H37.5v5.47c0 .43-.35.78-.781.78H31.25V12.5h5.469c.431 0 .781.35.781.781v5.469Z" fill="#7027E5"/></svg>
